X:1
T:Pennsylvania 6-5000
T:Pennsylvania 6-5000
C:Jerry Gray
Z:All Rights Reserved
L:1/8
M:2/2
K:G
V:1 treble nm="Piano" snm="Pno."
%%MIDI program 0
V:1
"G" DE G2 BG E2 |"C9" D3 E- E4 |"G" DE G2 BG E2 | D3"Ddim" E- E4 |"Am7" DE G2 cG E2 | %5
w: Numb- ers I've got by the|doz- en _|ev- 'ry- one's un- cle and|cous- in, _|But I can't live with- out|
"D7" D3 E- E4 |"G""^TACET" z4"^(SPOKEN)" DDDD | D2 DD- D D3 |"G" DE G2 BG E2 |"C9" D3 E- E4 | %10
w: buz- 'zin'" *|Penn syl- van- ia|Six, Five Thous- .- and.|I've got a sweet- y I|know there _|
"G" DE G2 BG E2 | D3"Ddim" E- E4 |"Am7" DE G2 cG E2 |"D7" D3 E- E4 | %14
w: Some- one who sets me a-|glow there _|Gives me the sweet- est "hel-|lo there" _|
"G""^TACET" z4"^(SPOKEN)" DDDD | D2 DD- D D2"Am" z |"B+7" B c2"B7" B- B2 AG- |"Em" G E3 z F"Am"GA | %18
w: ~~Penn- syl- van- ia|Six, Five Thous- .- and.|We don't say _ "how are|_ you" and ver- y|
"B+7" B c2"B7" B- B2 AG- |"Em" G4"E7b5" z ^G3 |"A7" A _B2 A- A =G3 |"D" F2"C7" GA-"B7" A3 ^A | %22
w: sel- dom ask _ "what's new?"|_ In-|stead we start * and|end each call _ with|
"E9" BdBc"A7" ^cABd- |"D7" d"Eb9" =c2"D9" A A4 |"G" DE G2 BG E2 |"C9" D3 E- E4 |"G" DE G2 BG E2 | %27
w: "ba- by con- fi- den- tial- ly I|_ love you." _|May- be it sounds a bit|fun- ny _|When I'm a- way from my|
"Ddim" D3 E- E4 |"Am7" DE G2 cG E2 |"D7" D3 E- E4 |"G""^TACET" z4"^(SPOKEN)" DDDD | D2 DD- D D3 |] %32
w: hon- ey. _|Here's what I do with my|mon- ey. _|~Penn- syl- van- ia|Six, Five Thous- .- and.|

